X:475
T: Corlach
S: B.Breathnach: "Ceol Rince na hEireann" II/113 (gan ainm)
Z: B.Black
N: Part A is version of "Captain Byng" (c. Nathaniel Gow)
L: 1/8
M: 2/4
R: polka
K: D
D/E/|: FD AD|FD DE/F/|GE BE|GE EG|
FD AD|FD DE/F/|GE BE/G/|1 FD D>E :|2 FD D||
B/c/|: d2 c(3B/c/B/|AF D2|Ee ed|c(3B/c/B/ A2|
d2 c(3B/c/B/|AF DE/F/|GE BE|1 FD D :|2 FD D>E||

